suite-common/icons/assets/icons/closeCircle.svg

<svg xmlns="http://www.w3.org/2000/svg" xml:space="preserve" fill="none" viewBox="0 0 24 24">
  <path fill="#1B1A19" fill-rule="evenodd" d="M11.34 2.281c-1.869.115-3.691.798-5.256 1.971-.501.375-1.468 1.344-1.839 1.84a9.9 9.9 0 0 0-1.892 4.48c-.114.705-.123 2.019-.02 2.728a9.96 9.96 0 0 0 1.912 4.608c.377.504 1.343 1.47 1.847 1.847a9.95 9.95 0 0 0 4.608 1.911c.333.048.732.07 1.3.07 1.556 0 2.894-.306 4.26-.974 1.052-.515 1.77-1.03 2.621-1.881s1.367-1.57 1.88-2.621a9.67 9.67 0 0 0 .192-8.099 9.73 9.73 0 0 0-3.782-4.411 9.66 9.66 0 0 0-4.593-1.47 14 14 0 0 0-.678-.033zM9.347 8.362c.062.023.684.612 1.383 1.31L12 10.94l1.27-1.266c.698-.696 1.309-1.285 1.357-1.31.111-.056.454-.057.6-.001.154.057.331.23.398.386a1 1 0 0 1 .013.598c-.024.062-.613.685-1.309 1.383L13.062 12l1.306 1.31c.907.909 1.316 1.347 1.338 1.43.049.184.029.474-.04.609a.8.8 0 0 1-.457.369c-.187.052-.231.052-.429-.002-.134-.036-.37-.253-1.47-1.349L12 13.062l-1.31 1.306c-1.156 1.152-1.331 1.311-1.485 1.352a.75.75 0 0 1-.925-.925c.041-.154.2-.329 1.353-1.485l1.306-1.311-1.268-1.269c-.697-.699-1.286-1.321-1.309-1.383a1.03 1.03 0 0 1 .001-.574.82.82 0 0 1 .377-.396 1 1 0 0 1 .607-.015"/>
</svg>

<svg xmlns="http://www.w3.org/2000/svg" xml:space="preserve" fill="none" viewBox="0 0 24 24"><path d="M11.340 2.281 C 9.471 2.396,7.649 3.079,6.084 4.252 C 5.583 4.627,4.616 5.596,4.245 6.092 C 3.236 7.444,2.622 8.895,2.353 10.572 C 2.239 11.277,2.230 12.591,2.333 13.300 C 2.582 15.004,3.215 16.530,4.245 17.908 C 4.622 18.412,5.588 19.378,6.092 19.755 C 7.471 20.785,9.000 21.420,10.700 21.666 C 11.033 21.714,11.432 21.736,12.000 21.736 C 13.556 21.736,14.894 21.430,16.260 20.762 C 17.312 20.247,18.030 19.732,18.881 18.881 C 19.732 18.030,20.248 17.311,20.761 16.260 C 22.008 13.710,22.077 10.782,20.953 8.161 C 20.174 6.343,18.862 4.813,17.171 3.750 C 15.783 2.878,14.256 2.389,12.578 2.280 C 12.249 2.259,11.944 2.244,11.900 2.247 C 11.856 2.250,11.604 2.265,11.340 2.281 M9.347 8.362 C 9.409 8.385,10.031 8.974,10.730 9.672 L 12.000 10.940 13.270 9.674 C 13.968 8.978,14.579 8.389,14.627 8.364 C 14.738 8.308,15.081 8.307,15.227 8.363 C 15.381 8.420,15.558 8.593,15.625 8.749 C 15.690 8.902,15.697 9.191,15.638 9.347 C 15.614 9.409,15.025 10.032,14.329 10.730 L 13.062 12.000 14.368 13.310 C 15.275 14.219,15.684 14.657,15.706 14.740 C 15.755 14.924,15.735 15.214,15.666 15.349 C 15.581 15.513,15.389 15.668,15.209 15.718 C 15.022 15.770,14.978 15.770,14.780 15.716 C 14.646 15.680,14.410 15.463,13.310 14.367 L 12.000 13.062 10.690 14.368 C 9.534 15.520,9.359 15.679,9.205 15.720 C 8.634 15.870,8.130 15.366,8.280 14.795 C 8.321 14.641,8.480 14.466,9.633 13.310 L 10.939 11.999 9.671 10.730 C 8.974 10.031,8.385 9.409,8.362 9.347 C 8.308 9.202,8.308 8.916,8.363 8.773 C 8.419 8.624,8.591 8.443,8.740 8.377 C 8.885 8.312,9.193 8.304,9.347 8.362 " fill="#1B1A19" stroke="none" fill-rule="evenodd"></path></svg>
